Newaita-dark/apps/16/com.github.allen-b1.news.svg

<svg height="16pt" viewBox="0 0 16 16" width="16pt" xmlns="http://www.w3.org/2000/svg" xmlns:xlink="http://www.w3.org/1999/xlink"><linearGradient id="a" gradientUnits="userSpaceOnUse" x1="7.938261" x2="7.938261" y1="14.0169675" y2="14.67848943751"><stop offset="0" stop-opacity=".27451"/><stop offset="1" stop-opacity="0"/></linearGradient><linearGradient id="b"><stop offset="0" stop-opacity=".313725"/><stop offset=".222222" stop-opacity=".27451"/><stop offset="1" stop-opacity="0"/></linearGradient><radialGradient id="c" cx="450.90894" cy="189.57936" gradientTransform="matrix(.00000009 -.0390662 -.0703192 -.00000005 26.561465 31.797667)" gradientUnits="userSpaceOnUse" r="21.166656" xlink:href="#b"/><radialGradient id="d" cx="450.90894" cy="189.57936" gradientTransform="matrix(-.00000009 .0390662 .0703192 .00000005 -10.602259 -3.763739)" gradientUnits="userSpaceOnUse" r="21.166656" xlink:href="#b"/><radialGradient id="e" cx="450.90894" cy="189.57936" gradientTransform="matrix(-.00000009 -.0390662 .0703192 -.00000005 -10.602259 31.797667)" gradientUnits="userSpaceOnUse" r="21.166656" xlink:href="#b"/><radialGradient id="f" cx="450.90894" cy="189.57936" gradientTransform="matrix(.00000009 .0390662 -.0703192 .00000005 26.561464 -3.76374)" gradientUnits="userSpaceOnUse" r="21.166656" xlink:href="#b"/><linearGradient id="g" gradientUnits="userSpaceOnUse" x1="7.938262" x2="7.938262" y1="14.0169675" y2="1.44805256249"><stop offset="0" stop-color="#f44336"/><stop offset="1" stop-color="#ef5350"/></linearGradient><linearGradient id="h" gradientUnits="userSpaceOnUse" x1="8.5997808" x2="8.5997808" y1="14.01696629816" y2="1.44805531933"><stop offset="0" stop-color="#bdbdbd"/><stop offset="1" stop-color="#e0e0e0"/></linearGradient><path d="m2.5625 14.015625h10.832031v.664063h-10.832031zm0 0" fill="url(#a)"/><path d="m13.394531 14.015625h1.324219v-.660156h-1.324219zm0 0" fill="url(#c)"/><path d="m2.5625 14.015625h-1.320312v.664063h1.320312zm0 0" fill="url(#d)"/><path d="m2.5625 14.015625h-1.320312v-.660156h1.320312zm0 0" fill="url(#e)"/><path d="m13.394531 14.015625h1.324219v.664063h-1.324219zm0 0" fill="url(#f)"/><path d="m1.820312 1.449219h12.238282c.273437 0 .496094.222656.496094.496093v11.574219c0 .273438-.222657.496094-.496094.496094h-12.238282c-.273437 0-.496093-.222656-.496093-.496094v-11.574219c0-.273437.222656-.496093.496093-.496093zm0 0" fill="url(#g)"/><path d="m1.820312 1.449219c-.277343 0-.496093.21875-.496093.496093v.082032c0-.273438.21875-.496094.496093-.496094h12.238282c.273437 0 .496094.222656.496094.496094v-.082032c0-.277343-.222657-.496093-.496094-.496093zm0 0" fill="#fff" fill-opacity=".392157"/><path d="m1.820312 14.015625c-.277343 0-.496093-.21875-.496093-.496094v-.082031c0 .273438.21875.496094.496093.496094h12.238282c.273437 0 .496094-.222656.496094-.496094v.082031c0 .277344-.222657.496094-.496094.496094zm0 0" fill="#030303" fill-opacity=".235294"/><path d="m1.820312 1.402344c-.300781 0-.542968.242187-.542968.542968v11.574219c0 .300781.242187.542969.542968.542969h12.238282c.296875 0 .542968-.242188.542968-.542969v-11.574219c0-.300781-.246093-.542968-.542968-.542968zm0 .09375h12.238282c.25 0 .449218.199218.449218.449218v11.574219c0 .25-.199218.449219-.449218.449219h-12.238282c-.25 0-.449218-.199219-.449218-.449219v-11.574219c0-.25.199218-.449218.449218-.449218zm0 0" fill="#212121"/><path d="m2.644531 3.433594c-.183593 0-.328125.148437-.328125.328125v.664062c0 .183594.144532.328125.328125.328125 4.398438 0 7.941407 3.542969 7.941407 7.941406 0 .183594.144531.328126.328124.328126h.664063c.183594 0 .328125-.144532.328125-.328126 0-5.132812-4.128906-9.261718-9.261719-9.261718zm0 2.644531c-.183593 0-.328125.148437-.328125.332031v.660156c0 .183594.144532.332032.328125.332032 2.933594 0 5.292969 2.359375 5.292969 5.292968 0 .183594.148438.328126.332031.328126h.660157c.183593 0 .332031-.144532.332031-.328126 0-3.667968-2.949219-6.617187-6.617188-6.617187zm1.488281 3.308594c-1.007812 0-1.816406.8125-1.816406 1.820312 0 1.007813.808594 1.816407 1.816406 1.816407 1.007813 0 1.820313-.808594 1.820313-1.816407 0-1.007812-.8125-1.820312-1.820313-1.820312zm0 0" fill="url(#h)"/><path d="m2.644531 3.433594c-.183593 0-.328125.148437-.328125.328125v.25c0-.183594.144532-.332031.328125-.332031 5.0625 0 9.152344 4.019531 9.261719 9.054687 0-.011719 0-.027344 0-.039063 0-5.132812-4.128906-9.261718-9.261719-9.261718zm0 2.644531c-.183593 0-.328125.148437-.328125.332031v.246094c0-.183594.144532-.328125.328125-.328125 3.597657 0 6.507813 2.839844 6.613281 6.410156.003907-.015625.003907-.027343.003907-.042969 0-3.667968-2.949219-6.617187-6.617188-6.617187zm1.488281 3.308594c-1.007812 0-1.816406.8125-1.816406 1.820312 0 .039063 0 .082031.003906.121094.0625-.949219.847657-1.695313 1.8125-1.695313.96875 0 1.753907.746094 1.816407 1.695313.003906-.039063.003906-.082031.003906-.121094 0-1.007812-.8125-1.820312-1.820313-1.820312zm0 0" fill="#fff"/><path d="m2.316406 4.425781v.328125c0 .183594.144532.332032.328125.332032 4.398438 0 7.941407 3.539062 7.941407 7.9375 0 .183593.144531.332031.328124.332031h.664063c.183594 0 .328125-.148438.328125-.332031 0-.089844 0-.183594-.003906-.277344-.023438.160156-.160156.277344-.324219.277344h-.664063c-.183593 0-.328124-.144532-.328124-.328126 0-4.398437-3.542969-7.941406-7.941407-7.941406-.183593 0-.328125-.144531-.328125-.328125zm0 2.644531v.332032c0 .183594.144532.332031.328125.332031 2.933594 0 5.292969 2.359375 5.292969 5.289063 0 .183593.148438.332031.332031.332031h.660157c.183593 0 .332031-.148438.332031-.332031 0-.089844-.003907-.179688-.007813-.269532-.027344.15625-.160156.269532-.324218.269532h-.660157c-.183593 0-.332031-.144532-.332031-.328126 0-2.933593-2.359375-5.292968-5.292969-5.292968-.183593 0-.328125-.148438-.328125-.332032zm.007813 4.300782c-.007813.054687-.007813.109375-.007813.164062 0 1.007813.808594 1.820313 1.816406 1.820313 1.007813 0 1.820313-.8125 1.820313-1.820313 0-.054687-.003906-.109375-.007813-.164062-.082031.929687-.859374 1.652344-1.8125 1.652344-.949218 0-1.726562-.722657-1.808593-1.652344zm0 0" fill-opacity=".235294"/><path d="m319.811983 415.235943c-22.202604 0-39.68125 17.951042-39.68125 39.68125v80.307293c0 22.202604 17.478646 39.68125 39.68125 39.68125 531.917715 0 960.380741 428.463027 960.380741 960.380742 0 22.202604 17.478647 39.68125 39.681251 39.68125h80.307293c22.202604 0 39.68125-17.478646 39.68125-39.68125 0-620.728133-499.322402-1120.050535-1120.050535-1120.050535zm0 319.811983c-22.202604 0-39.68125 17.951042-39.68125 40.153646v79.834897c0 22.202605 17.478646 40.153646 39.68125 40.153646 354.769275 0 640.096362 285.327087 640.096362 640.096363 0 22.202604 17.951042 39.68125 40.153647 39.68125h79.834897c22.202604 0 40.153646-17.478646 40.153646-39.68125 0-443.579693-356.658859-800.238552-800.238552-800.238552zm179.982815 400.119276c-121.878127 0-219.664065 98.258334-219.664065 220.136461 0 121.878126 97.785938 219.664065 219.664065 219.664065 121.878126 0 220.136461-97.785939 220.136461-219.664065 0-121.878127-98.258335-220.136461-220.136461-220.136461zm0 0" fill="none" stroke="#212121" stroke-linecap="round" stroke-linejoin="round" stroke-width="11.338583" transform="scale(.00826902)"/></svg>

<?xml version="1.0" encoding="UTF-8"?>
<svg xmlns="http://www.w3.org/2000/svg" xmlns:xlink="http://www.w3.org/1999/xlink" width="16pt" height="16pt" viewBox="0 0 16 16" version="1.1">
<defs>
<linearGradient id="linear0" gradientUnits="userSpaceOnUse" x1="254" y1="233.5" x2="254" y2="254.66667" gradientTransform="matrix(0.031253,0,0,0.031253,-0.00000125012,6.719392)">
<stop offset="0" style="stop-color:rgb(0%,0%,0%);stop-opacity:0.27451;"/>
<stop offset="1" style="stop-color:rgb(0%,0%,0%);stop-opacity:0;"/>
</linearGradient>
<radialGradient id="radial0" gradientUnits="userSpaceOnUse" cx="450.90894" cy="189.57936" fx="450.90894" fy="189.57936" r="21.166656" gradientTransform="matrix(0.0000000870852,-0.0390662,-0.0703192,-0.0000000507693,26.561465,31.797667)">
<stop offset="0" style="stop-color:rgb(0%,0%,0%);stop-opacity:0.313725;"/>
<stop offset="0.222222" style="stop-color:rgb(0%,0%,0%);stop-opacity:0.27451;"/>
<stop offset="1" style="stop-color:rgb(0%,0%,0%);stop-opacity:0;"/>
</radialGradient>
<radialGradient id="radial1" gradientUnits="userSpaceOnUse" cx="450.90894" cy="189.57936" fx="450.90894" fy="189.57936" r="21.166656" gradientTransform="matrix(-0.0000000870852,0.0390662,0.0703192,0.0000000507693,-10.602259,-3.763739)">
<stop offset="0" style="stop-color:rgb(0%,0%,0%);stop-opacity:0.313725;"/>
<stop offset="0.222222" style="stop-color:rgb(0%,0%,0%);stop-opacity:0.27451;"/>
<stop offset="1" style="stop-color:rgb(0%,0%,0%);stop-opacity:0;"/>
</radialGradient>
<radialGradient id="radial2" gradientUnits="userSpaceOnUse" cx="450.90894" cy="189.57936" fx="450.90894" fy="189.57936" r="21.166656" gradientTransform="matrix(-0.0000000870852,-0.0390662,0.0703192,-0.0000000507693,-10.602259,31.797667)">
<stop offset="0" style="stop-color:rgb(0%,0%,0%);stop-opacity:0.313725;"/>
<stop offset="0.222222" style="stop-color:rgb(0%,0%,0%);stop-opacity:0.27451;"/>
<stop offset="1" style="stop-color:rgb(0%,0%,0%);stop-opacity:0;"/>
</radialGradient>
<radialGradient id="radial3" gradientUnits="userSpaceOnUse" cx="450.90894" cy="189.57936" fx="450.90894" fy="189.57936" r="21.166656" gradientTransform="matrix(0.0000000870852,0.0390662,-0.0703192,0.0000000507693,26.561464,-3.76374)">
<stop offset="0" style="stop-color:rgb(0%,0%,0%);stop-opacity:0.313725;"/>
<stop offset="0.222222" style="stop-color:rgb(0%,0%,0%);stop-opacity:0.27451;"/>
<stop offset="1" style="stop-color:rgb(0%,0%,0%);stop-opacity:0;"/>
</radialGradient>
<linearGradient id="linear1" gradientUnits="userSpaceOnUse" x1="254" y1="233.5" x2="254" y2="-168.66667" gradientTransform="matrix(0.031253,0,0,0.031253,0,6.719392)">
<stop offset="0" style="stop-color:rgb(95.686275%,26.27451%,21.176471%);stop-opacity:1;"/>
<stop offset="1" style="stop-color:rgb(93.72549%,32.54902%,31.372549%);stop-opacity:1;"/>
</linearGradient>
<linearGradient id="linear2" gradientUnits="userSpaceOnUse" x1="1040" y1="1695.1182" x2="1040" y2="175.11813" gradientTransform="matrix(0.00826902,0,0,0.00826902,0,0)">
<stop offset="0" style="stop-color:rgb(74.117647%,74.117647%,74.117647%);stop-opacity:1;"/>
<stop offset="1" style="stop-color:rgb(87.843137%,87.843137%,87.843137%);stop-opacity:1;"/>
</linearGradient>
</defs>
<g id="surface1">
<path style=" stroke:none;fill-rule:nonzero;fill:url(#linear0);" d="M 2.5625 14.015625 L 13.394531 14.015625 L 13.394531 14.679688 L 2.5625 14.679688 Z M 2.5625 14.015625 "/>
<path style=" stroke:none;fill-rule:nonzero;fill:url(#radial0);" d="M 13.394531 14.015625 L 14.71875 14.015625 L 14.71875 13.355469 L 13.394531 13.355469 Z M 13.394531 14.015625 "/>
<path style=" stroke:none;fill-rule:nonzero;fill:url(#radial1);" d="M 2.5625 14.015625 L 1.242188 14.015625 L 1.242188 14.679688 L 2.5625 14.679688 Z M 2.5625 14.015625 "/>
<path style=" stroke:none;fill-rule:nonzero;fill:url(#radial2);" d="M 2.5625 14.015625 L 1.242188 14.015625 L 1.242188 13.355469 L 2.5625 13.355469 Z M 2.5625 14.015625 "/>
<path style=" stroke:none;fill-rule:nonzero;fill:url(#radial3);" d="M 13.394531 14.015625 L 14.71875 14.015625 L 14.71875 14.679688 L 13.394531 14.679688 Z M 13.394531 14.015625 "/>
<path style=" stroke:none;fill-rule:nonzero;fill:url(#linear1);" d="M 1.820312 1.449219 L 14.058594 1.449219 C 14.332031 1.449219 14.554688 1.671875 14.554688 1.945312 L 14.554688 13.519531 C 14.554688 13.792969 14.332031 14.015625 14.058594 14.015625 L 1.820312 14.015625 C 1.546875 14.015625 1.324219 13.792969 1.324219 13.519531 L 1.324219 1.945312 C 1.324219 1.671875 1.546875 1.449219 1.820312 1.449219 Z M 1.820312 1.449219 "/>
<path style=" stroke:none;fill-rule:nonzero;fill:rgb(100%,100%,100%);fill-opacity:0.392157;" d="M 1.820312 1.449219 C 1.542969 1.449219 1.324219 1.667969 1.324219 1.945312 L 1.324219 2.027344 C 1.324219 1.753906 1.542969 1.53125 1.820312 1.53125 L 14.058594 1.53125 C 14.332031 1.53125 14.554688 1.753906 14.554688 2.027344 L 14.554688 1.945312 C 14.554688 1.667969 14.332031 1.449219 14.058594 1.449219 Z M 1.820312 1.449219 "/>
<path style=" stroke:none;fill-rule:nonzero;fill:rgb(1.176471%,1.176471%,1.176471%);fill-opacity:0.235294;" d="M 1.820312 14.015625 C 1.542969 14.015625 1.324219 13.796875 1.324219 13.519531 L 1.324219 13.4375 C 1.324219 13.710938 1.542969 13.933594 1.820312 13.933594 L 14.058594 13.933594 C 14.332031 13.933594 14.554688 13.710938 14.554688 13.4375 L 14.554688 13.519531 C 14.554688 13.796875 14.332031 14.015625 14.058594 14.015625 Z M 1.820312 14.015625 "/>
<path style=" stroke:none;fill-rule:nonzero;fill:rgb(12.941176%,12.941176%,12.941176%);fill-opacity:1;" d="M 1.820312 1.402344 C 1.519531 1.402344 1.277344 1.644531 1.277344 1.945312 L 1.277344 13.519531 C 1.277344 13.820312 1.519531 14.0625 1.820312 14.0625 L 14.058594 14.0625 C 14.355469 14.0625 14.601562 13.820312 14.601562 13.519531 L 14.601562 1.945312 C 14.601562 1.644531 14.355469 1.402344 14.058594 1.402344 Z M 1.820312 1.496094 L 14.058594 1.496094 C 14.308594 1.496094 14.507812 1.695312 14.507812 1.945312 L 14.507812 13.519531 C 14.507812 13.769531 14.308594 13.96875 14.058594 13.96875 L 1.820312 13.96875 C 1.570312 13.96875 1.371094 13.769531 1.371094 13.519531 L 1.371094 1.945312 C 1.371094 1.695312 1.570312 1.496094 1.820312 1.496094 Z M 1.820312 1.496094 "/>
<path style=" stroke:none;fill-rule:nonzero;fill:url(#linear2);" d="M 2.644531 3.433594 C 2.460938 3.433594 2.316406 3.582031 2.316406 3.761719 L 2.316406 4.425781 C 2.316406 4.609375 2.460938 4.753906 2.644531 4.753906 C 7.042969 4.753906 10.585938 8.296875 10.585938 12.695312 C 10.585938 12.878906 10.730469 13.023438 10.914062 13.023438 L 11.578125 13.023438 C 11.761719 13.023438 11.90625 12.878906 11.90625 12.695312 C 11.90625 7.5625 7.777344 3.433594 2.644531 3.433594 Z M 2.644531 6.078125 C 2.460938 6.078125 2.316406 6.226562 2.316406 6.410156 L 2.316406 7.070312 C 2.316406 7.253906 2.460938 7.402344 2.644531 7.402344 C 5.578125 7.402344 7.9375 9.761719 7.9375 12.695312 C 7.9375 12.878906 8.085938 13.023438 8.269531 13.023438 L 8.929688 13.023438 C 9.113281 13.023438 9.261719 12.878906 9.261719 12.695312 C 9.261719 9.027344 6.3125 6.078125 2.644531 6.078125 Z M 4.132812 9.386719 C 3.125 9.386719 2.316406 10.199219 2.316406 11.207031 C 2.316406 12.214844 3.125 13.023438 4.132812 13.023438 C 5.140625 13.023438 5.953125 12.214844 5.953125 11.207031 C 5.953125 10.199219 5.140625 9.386719 4.132812 9.386719 Z M 4.132812 9.386719 "/>
<path style=" stroke:none;fill-rule:nonzero;fill:rgb(100%,100%,100%);fill-opacity:1;" d="M 2.644531 3.433594 C 2.460938 3.433594 2.316406 3.582031 2.316406 3.761719 L 2.316406 4.011719 C 2.316406 3.828125 2.460938 3.679688 2.644531 3.679688 C 7.707031 3.679688 11.796875 7.699219 11.90625 12.734375 C 11.90625 12.722656 11.90625 12.707031 11.90625 12.695312 C 11.90625 7.5625 7.777344 3.433594 2.644531 3.433594 Z M 2.644531 6.078125 C 2.460938 6.078125 2.316406 6.226562 2.316406 6.410156 L 2.316406 6.65625 C 2.316406 6.472656 2.460938 6.328125 2.644531 6.328125 C 6.242188 6.328125 9.152344 9.167969 9.257812 12.738281 C 9.261719 12.722656 9.261719 12.710938 9.261719 12.695312 C 9.261719 9.027344 6.3125 6.078125 2.644531 6.078125 Z M 4.132812 9.386719 C 3.125 9.386719 2.316406 10.199219 2.316406 11.207031 C 2.316406 11.246094 2.316406 11.289062 2.320312 11.328125 C 2.382812 10.378906 3.167969 9.632812 4.132812 9.632812 C 5.101562 9.632812 5.886719 10.378906 5.949219 11.328125 C 5.953125 11.289062 5.953125 11.246094 5.953125 11.207031 C 5.953125 10.199219 5.140625 9.386719 4.132812 9.386719 Z M 4.132812 9.386719 "/>
<path style=" stroke:none;fill-rule:nonzero;fill:rgb(0%,0%,0%);fill-opacity:0.235294;" d="M 2.316406 4.425781 L 2.316406 4.753906 C 2.316406 4.9375 2.460938 5.085938 2.644531 5.085938 C 7.042969 5.085938 10.585938 8.625 10.585938 13.023438 C 10.585938 13.207031 10.730469 13.355469 10.914062 13.355469 L 11.578125 13.355469 C 11.761719 13.355469 11.90625 13.207031 11.90625 13.023438 C 11.90625 12.933594 11.90625 12.839844 11.902344 12.746094 C 11.878906 12.90625 11.742188 13.023438 11.578125 13.023438 L 10.914062 13.023438 C 10.730469 13.023438 10.585938 12.878906 10.585938 12.695312 C 10.585938 8.296875 7.042969 4.753906 2.644531 4.753906 C 2.460938 4.753906 2.316406 4.609375 2.316406 4.425781 Z M 2.316406 7.070312 L 2.316406 7.402344 C 2.316406 7.585938 2.460938 7.734375 2.644531 7.734375 C 5.578125 7.734375 7.9375 10.09375 7.9375 13.023438 C 7.9375 13.207031 8.085938 13.355469 8.269531 13.355469 L 8.929688 13.355469 C 9.113281 13.355469 9.261719 13.207031 9.261719 13.023438 C 9.261719 12.933594 9.257812 12.84375 9.253906 12.753906 C 9.226562 12.910156 9.09375 13.023438 8.929688 13.023438 L 8.269531 13.023438 C 8.085938 13.023438 7.9375 12.878906 7.9375 12.695312 C 7.9375 9.761719 5.578125 7.402344 2.644531 7.402344 C 2.460938 7.402344 2.316406 7.253906 2.316406 7.070312 Z M 2.324219 11.371094 C 2.316406 11.425781 2.316406 11.480469 2.316406 11.535156 C 2.316406 12.542969 3.125 13.355469 4.132812 13.355469 C 5.140625 13.355469 5.953125 12.542969 5.953125 11.535156 C 5.953125 11.480469 5.949219 11.425781 5.945312 11.371094 C 5.863281 12.300781 5.085938 13.023438 4.132812 13.023438 C 3.183594 13.023438 2.40625 12.300781 2.324219 11.371094 Z M 2.324219 11.371094 "/>
<path style="fill:none;stroke-width:11.338583;stroke-linecap:round;stroke-linejoin:round;stroke:rgb(12.941176%,12.941176%,12.941176%);stroke-opacity:1;stroke-miterlimit:4;" d="M 319.811983 415.235943 C 297.609379 415.235943 280.130733 433.186985 280.130733 454.917193 L 280.130733 535.224486 C 280.130733 557.42709 297.609379 574.905736 319.811983 574.905736 C 851.729698 574.905736 1280.192724 1003.368763 1280.192724 1535.286478 C 1280.192724 1557.489082 1297.671371 1574.967728 1319.873975 1574.967728 L 1400.181268 1574.967728 C 1422.383872 1574.967728 1439.862518 1557.489082 1439.862518 1535.286478 C 1439.862518 914.558345 940.540116 415.235943 319.811983 415.235943 Z M 319.811983 735.047926 C 297.609379 735.047926 280.130733 752.998968 280.130733 775.201572 L 280.130733 855.036469 C 280.130733 877.239074 297.609379 895.190115 319.811983 895.190115 C 674.581258 895.190115 959.908345 1180.517202 959.908345 1535.286478 C 959.908345 1557.489082 977.859387 1574.967728 1000.061992 1574.967728 L 1079.896889 1574.967728 C 1102.099493 1574.967728 1120.050535 1557.489082 1120.050535 1535.286478 C 1120.050535 1091.706785 763.391676 735.047926 319.811983 735.047926 Z M 499.794798 1135.167202 C 377.916671 1135.167202 280.130733 1233.425536 280.130733 1355.303663 C 280.130733 1477.181789 377.916671 1574.967728 499.794798 1574.967728 C 621.672924 1574.967728 719.931259 1477.181789 719.931259 1355.303663 C 719.931259 1233.425536 621.672924 1135.167202 499.794798 1135.167202 Z M 499.794798 1135.167202 " transform="matrix(0.00826902,0,0,0.00826902,0,0)"/>
</g>
</svg>
